svg/cilium.svg

<?xml version="1.0" encoding="UTF-8"?>
<svg xmlns="http://www.w3.org/2000/svg" xmlns:xlink="http://www.w3.org/1999/xlink" width="31.556" height="32" viewBox="0 0 31.556 32">
<path fill-rule="nonzero" fill="rgb(79.607844%, 86.666667%, 44.705883%)" fill-opacity="1" d="M 4.261719 6.585938 L 8.972656 6.585938 L 11.328125 10.667969 L 8.972656 14.753906 L 4.261719 14.753906 L 1.910156 10.667969 Z M 4.261719 6.585938 "/>
<path fill-rule="nonzero" fill="rgb(59.607846%, 79.215688%, 24.705882%)" fill-opacity="1" d="M 4.261719 17.082031 L 8.972656 17.082031 L 11.328125 21.136719 L 8.972656 25.195312 L 4.261719 25.195312 L 1.910156 21.136719 Z M 4.261719 17.082031 "/>
<path fill-rule="nonzero" fill="rgb(38.82353%, 53.725493%, 77.64706%)" fill-opacity="1" d="M 13.457031 22.246094 L 18.164062 22.246094 L 20.519531 26.300781 L 18.164062 30.359375 L 13.457031 30.359375 L 11.101562 26.300781 Z M 13.457031 22.246094 "/>
<path fill-rule="nonzero" fill="rgb(90.980393%, 15.686275%, 16.862746%)" fill-opacity="1" d="M 13.457031 11.746094 L 18.164062 11.746094 L 20.519531 15.832031 L 18.164062 19.917969 L 13.457031 19.917969 L 11.101562 15.832031 Z M 13.457031 11.746094 "/>
<path fill-rule="nonzero" fill="rgb(97.254902%, 77.254903%, 9.803922%)" fill-opacity="1" d="M 13.457031 1.308594 L 18.164062 1.308594 L 20.519531 5.363281 L 18.164062 9.421875 L 13.457031 9.421875 L 11.101562 5.363281 Z M 13.457031 1.308594 "/>
<path fill-rule="nonzero" fill="rgb(94.117647%, 45.882353%, 14.509805%)" fill-opacity="1" d="M 22.578125 6.585938 L 27.371094 6.585938 L 29.769531 10.667969 L 27.371094 14.753906 L 22.578125 14.753906 L 20.179688 10.667969 Z M 22.578125 6.585938 "/>
<path fill-rule="nonzero" fill="rgb(50.588238%, 38.431373%, 66.666669%)" fill-opacity="1" d="M 22.578125 17.082031 L 27.371094 17.082031 L 29.769531 21.136719 L 27.371094 25.195312 L 22.578125 25.195312 L 20.179688 21.136719 Z M 22.578125 17.082031 "/>
<path fill-rule="nonzero" fill="rgb(0%, 0%, 0%)" fill-opacity="1" d="M 18.585938 11.011719 L 12.957031 11.011719 L 10.136719 15.878906 L 12.957031 20.710938 L 18.585938 20.710938 L 21.425781 15.875 Z M 17.847656 19.414062 L 13.726562 19.414062 L 11.628906 15.886719 L 13.714844 12.308594 L 17.847656 12.308594 L 19.933594 15.886719 Z M 18.585938 21.449219 L 12.957031 21.449219 L 10.136719 26.3125 L 12.957031 31.152344 L 18.585938 31.152344 L 21.425781 26.3125 Z M 17.847656 29.855469 L 13.726562 29.855469 L 11.628906 26.324219 L 13.714844 22.742188 L 17.847656 22.742188 L 19.933594 26.324219 Z M 18.585938 0.570312 L 12.957031 0.570312 L 10.136719 5.441406 L 12.957031 10.273438 L 18.585938 10.273438 L 21.425781 5.441406 Z M 17.847656 8.980469 L 13.726562 8.980469 L 11.628906 5.441406 L 13.714844 1.863281 L 17.847656 1.863281 L 19.925781 5.441406 Z M 27.777344 16.230469 L 22.148438 16.230469 L 19.328125 21.097656 L 22.148438 25.933594 L 27.777344 25.933594 L 30.621094 21.097656 Z M 27.03125 24.632812 L 22.910156 24.632812 L 20.824219 21.105469 L 22.910156 17.519531 L 27.03125 17.519531 L 29.117188 21.097656 Z M 27.777344 5.789062 L 22.148438 5.789062 L 19.328125 10.683594 L 22.148438 15.550781 L 27.777344 15.550781 L 30.621094 10.683594 Z M 27.03125 14.246094 L 22.910156 14.246094 L 20.824219 10.695312 L 22.910156 7.097656 L 27.03125 7.097656 L 29.117188 10.695312 Z M 9.40625 16.230469 L 3.808594 16.230469 L 1 21.097656 L 3.808594 25.933594 L 9.40625 25.933594 L 12.234375 21.097656 Z M 8.667969 24.632812 L 4.566406 24.632812 L 2.488281 21.105469 L 4.566406 17.519531 L 8.667969 17.519531 L 10.742188 21.105469 Z M 9.40625 5.789062 L 3.808594 5.789062 L 1 10.683594 L 3.808594 15.550781 L 9.40625 15.550781 L 12.234375 10.683594 Z M 8.667969 14.246094 L 4.566406 14.246094 L 2.488281 10.691406 L 4.566406 7.09375 L 8.667969 7.09375 L 10.742188 10.691406 Z M 8.667969 14.246094 "/>
</svg>

<svg role="img" viewBox="0 0 31.556 32" xmlns="http://www.w3.org/2000/svg"><path d="M4.262 6.586h4.71l2.356 4.082-2.355 4.086H4.262L1.91 10.668Zm0 0" fill="rgb(79.607844%, 86.666667%, 44.705883%)"/><path d="M4.262 17.082h4.71l2.356 4.055-2.355 4.058H4.262L1.91 21.137Zm0 0" fill="rgb(59.607846%, 79.215688%, 24.705882%)"/><path d="M13.457 22.246h4.707l2.356 4.055-2.356 4.058h-4.707l-2.355-4.058Zm0 0" fill="rgb(38.82353%, 53.725493%, 77.64706%)"/><path d="M13.457 11.746h4.707l2.356 4.086-2.356 4.086h-4.707l-2.355-4.086Zm0 0" fill="rgb(90.980393%, 15.686275%, 16.862746%)"/><path d="M13.457 1.309h4.707l2.356 4.054-2.356 4.059h-4.707l-2.355-4.059Zm0 0" fill="rgb(97.254902%, 77.254903%, 9.803922%)"/><path d="M22.578 6.586h4.793l2.399 4.082-2.399 4.086h-4.793l-2.398-4.086Zm0 0" fill="rgb(94.117647%, 45.882353%, 14.509805%)"/><path d="M22.578 17.082h4.793l2.399 4.055-2.399 4.058h-4.793l-2.398-4.058Zm0 0" fill="rgb(50.588238%, 38.431373%, 66.666669%)"/><path d="M18.586 11.012h-5.629l-2.82 4.867 2.82 4.832h5.629l2.84-4.836Zm-.738 8.402h-4.121l-2.098-3.527 2.086-3.578h4.133l2.086 3.578Zm.738 2.035h-5.629l-2.82 4.863 2.82 4.84h5.629l2.84-4.84Zm-.738 8.406h-4.121l-2.098-3.53 2.086-3.583h4.133l2.086 3.582ZM18.586.57h-5.629l-2.82 4.871 2.82 4.832h5.629l2.84-4.832Zm-.738 8.41h-4.121l-2.098-3.539 2.086-3.578h4.133l2.078 3.578Zm9.93 7.25h-5.63l-2.82 4.868 2.82 4.836h5.63l2.843-4.836Zm-.747 8.403h-4.12l-2.087-3.528 2.086-3.585h4.121l2.086 3.578Zm.746-18.844h-5.629l-2.82 4.895 2.82 4.867h5.63l2.843-4.867Zm-.746 8.457h-4.12l-2.087-3.55 2.086-3.598h4.121l2.086 3.597ZM9.406 16.23H3.81L1 21.098l2.809 4.836h5.597l2.828-4.836Zm-.738 8.403H4.566l-2.078-3.528 2.078-3.585h4.102l2.074 3.585Zm.738-18.844H3.81L1 10.684l2.809 4.867h5.597l2.828-4.867Zm-.738 8.457H4.566l-2.078-3.555 2.078-3.597h4.102l2.074 3.597Zm0 0" fill="rgb(0%, 0%, 0%)"/></svg>
